X:1
T:Sociable Set (UNFINISHED)
T:Sociable Set (UNFINISHED)
T:Figure 1 - Play A (intro), ???
T:Elias Howe, 1859
C:Elias Howe, 1859
L:1/8
Q:1/2=112
M:2/2
K:Bb
V:1 treble 
V:1
"^A" f2 |"Bb" fg.f.=e"^/" f2 b2 |"Bb" fg.f.=e"^/" f2 d2 |"Bb" B2 B2"F7" c2 c2 | %4
"Bb" ded.c"^/" B2 d2 |"Bb" fgf=e"^/" f2 b2 |"Cm" ga.g.^f"^/" g2 e2 |"F7" d2 c2"^/" B2 A2 | %8
"Eb6" c4"Bb" B2 |]"^B" x8 | F2 |"F7" cd.c.^B"^/" c2 c2 |"Bb" f2 d2"^/" .B2 .F2 | %13
"Gm" de.d.^c"^/" d2 d2 |"Cm" g2 e2"F7" B2 .a2 |"F7" .b2 a2"^/" .b2 a2 |"Bb" bB.c.d"^/" ef.g.a | %17
"Bb" ba.g.f"^/" ed.c.B |"Bb" d4"F7" c2 ||"^C" x8 | d2 |"Gm" d2 dd"^/" d2 d2 |"Gm" g4"D7" ^f2 d2 | %23
"Gm" d2 dd"^/" d2 d2 |"Gm" [gb]4"D7" [^fa]2 d2 |"Gm" ga.b.g"D7" ^fg.a.f |"Gm" ga.b.g"D7" ^fg.a.f | %27
"Gm" g2 d2"^/" B2 G2 |"D" d6 ||[M:6/8]"Bb"[Q:3/8=112]"^A" B3"F7" cBA |"Bb" B2 z"F" c2 z | %31
"Bb" d2 f"C7" gf=e |"F" f3"^/" FzA |"F7" czf"^/" Fze |"Bb" dzf"^/" Fze |"F7" czf"^/" FGA | %36
"Bb" B3"^/" b2 z |"D7""^B" D3"^/" D=E^F |"Gm" G3"^/" GAB |"D7" D3"^/" D=E^F |"Gm" G3"^/" GAB | %41
"Dm7" AGF"^/" cBA |"Gm" edc"^/" BAG |"Dm" FCD"^/" EDC |"Gm" B,3 B3 | %45

